img/svg/orders3.svg

<svg width="12" height="11" viewBox="0 0 12 11" fill="none" xmlns="http://www.w3.org/2000/svg">
<path fill-rule="evenodd" clip-rule="evenodd" d="M11.9888 10.3107C11.9888 10.4212 11.8993 10.5107 11.7888 10.5107H0.2C0.0895398 10.5107 0 10.4212 0 10.3107V9.2C0 9.08955 0.0895398 9 0.19999 9H11.7888C11.8993 9 11.9888 9.08955 11.9888 9.2V10.3107Z" fill="#0AA869"/>
<path fill-rule="evenodd" clip-rule="evenodd" d="M9.41978 4.33219C9.41978 4.44265 9.33018 4.53219 9.21978 4.53219H0.2C0.0895398 4.53219 0 4.44265 0 4.33219V3.22148C0 3.11102 0.0895398 3.02148 0.2 3.02148H9.21978C9.33018 3.02148 9.41978 3.11102 9.41978 3.22148V4.33219Z" fill="#0AA869"/>
<path fill-rule="evenodd" clip-rule="evenodd" d="M9.41978 7.3537C9.41978 7.4641 9.33018 7.5537 9.21978 7.5537H0.2C0.0895398 7.5537 0 7.4641 0 7.3537V6.243C0 6.1325 0.0895398 6.043 0.2 6.043H9.21978C9.33018 6.043 9.41978 6.1325 9.41978 6.243V7.3537Z" fill="#0AA869"/>
<path fill-rule="evenodd" clip-rule="evenodd" d="M9.41978 1.3107C9.41978 1.4211 9.33018 1.5107 9.21978 1.5107H0.2C0.0895398 1.5107 0 1.4211 0 1.3107V0.2C0 0.0894998 0.0895398 0 0.2 0H9.21978C9.33018 0 9.41978 0.0894998 9.41978 0.2V1.3107Z" fill="#0AA869"/>
</svg>

<svg width="12" height="11" viewBox="0 0 12 11" fill="none" xmlns="http://www.w3.org/2000/svg"><path fill-rule="evenodd" clip-rule="evenodd" d="M11.989 10.31a.2.2 0 01-.2.2H.2a.2.2 0 01-.2-.2V9.2c0-.11.09-.2.2-.2h11.589c.11 0 .2.09.2.2v1.11zM9.42 4.332a.2.2 0 01-.2.2H.2a.2.2 0 01-.2-.2v-1.11a.2.2 0 01.2-.2h9.02a.2.2 0 01.2.2v1.11zm0 3.022a.2.2 0 01-.2.2H.2a.2.2 0 01-.2-.2V6.243c0-.11.09-.2.2-.2h9.02c.11 0 .2.09.2.2v1.11zm0-6.044a.2.2 0 01-.2.2H.2a.2.2 0 01-.2-.2V.2C0 .09.09 0 .2 0h9.02c.11 0 .2.09.2.2v1.11z" fill="#0AA869"/></svg>
